src/topics/icons/jscs.svg

<svg height="214" preserveAspectRatio="xMidYMid" viewBox="0 0 256 214" width="256" xmlns="http://www.w3.org/2000/svg"><path d="m0 .29866667h256v213.33333333h-256z" fill="#ebd851"/><path d="m53.0773333 99.328 6.912-4.1813333c1.3226667 2.3466666 2.56 4.352 5.4613334 4.352 2.816 0 4.5653333-1.0666667 4.5653333-5.3333334v-28.928h8.4906667v29.056c0 8.7893337-5.1626667 12.7999997-12.672 12.7999997-6.8266667 0-10.752-3.498666-12.7573334-7.509333zm34.432-.8106667 6.8266667-3.968c1.8346667 2.944 4.1386667 5.0773334 8.277333 5.0773334 3.498667 0 5.717334-1.7066667 5.717334-4.096 0-2.9013334-2.304-3.9253334-6.144-5.5893334l-2.090667-.896c-6.0586667-2.56-10.0693333-5.8026666-10.0693333-12.6293333 0-6.3146667 4.8213333-11.0933333 12.2880003-11.0933333 5.333333 0 9.173333 1.8773333 11.946666 6.6986666l-6.528 4.224c-1.450666-2.6026666-3.029333-3.6266666-5.418666-3.6266666-2.4320003 0-4.010667 1.5786666-4.010667 3.6266666 0 2.4746667 1.5786667 3.4986667 5.162667 5.0773334l2.090666.896c7.125334 3.072 11.136 6.1866666 11.136 13.184 0 7.5520003-5.930666 11.6906663-13.909333 11.6906663-7.7653333 0-12.8-3.712-15.2746667-8.5759997zm69.0773337-20.5653333 6.485333-4.352c-6.954667-9.216-20.096-11.008-29.269333-4.0106667-9.173334 6.9973334-11.008 20.096-4.010667 29.2693334 6.997333 9.1733333 20.096 11.0080003 29.269333 4.0106663 1.536-1.152 2.858667-2.517333 4.010667-4.0106663l-6.485333-4.3093334c-4.565334 5.5039997-12.757334 6.2719997-18.261334 1.664-5.504-4.608-6.272-12.7573333-1.664-18.2613333 4.565334-5.504 12.757334-6.272 18.261334-1.664.597333.512 1.152 1.0666667 1.664 1.664zm16.256 20.5653333 6.826666-3.968c1.834667 2.944 4.138667 5.0773334 8.277334 5.0773334 3.498666 0 5.717333-1.7066667 5.717333-4.096 0-2.9013334-2.304-3.9253334-6.144-5.5893334l-2.090667-.896c-6.058666-2.56-10.069333-5.8026666-10.069333-12.6293333 0-6.3146667 4.821333-11.0933333 12.288-11.0933333 5.333333 0 9.173333 1.8773333 11.946667 6.6986666l-6.528 4.224c-1.450667-2.6026666-3.029334-3.6266666-5.418667-3.6266666-2.432 0-4.010667 1.5786666-4.010667 3.6266666 0 2.4746667 1.578667 3.4986667 5.162667 5.0773334l2.090667.896c7.125333 3.072 11.136 6.1866666 11.136 13.184 0 7.5520003-5.930667 11.6906663-13.909334 11.6906663-7.765333 0-12.8-3.712-15.274666-8.5759997zm-118.2293337 43.9893337h22.1866667v7.253333h-22.1866667zm37.9733334 0h22.1866663v7.253333h-22.1866663zm35.4133333 0 18.346667-18.346667 18.346666 18.346667h-11.093333l-7.253333-7.253334-7.253334 7.253334z" fill="#323330"/></svg>

<?xml version="1.0" encoding="UTF-8" standalone="no"?>
<svg width="256px" height="214px" viewBox="0 0 256 214" version="1.1" xmlns="http://www.w3.org/2000/svg" xmlns:xlink="http://www.w3.org/1999/xlink" preserveAspectRatio="xMidYMid">
	<g>
		<path d="M0,0.298666667 L256,0.298666667 L256,213.632 L0,213.632 L0,0.298666667 Z" fill="#EBD851"></path>
		<path d="M53.0773333,99.328 L59.9893333,95.1466667 C61.312,97.4933333 62.5493333,99.4986667 65.4506667,99.4986667 C68.2666667,99.4986667 70.016,98.432 70.016,94.1653333 L70.016,65.2373333 L78.5066667,65.2373333 L78.5066667,94.2933333 C78.5066667,103.082667 73.344,107.093333 65.8346667,107.093333 C59.008,107.093333 55.0826667,103.594667 53.0773333,99.584 L53.0773333,99.328 L53.0773333,99.328 Z M87.5093333,98.5173333 L94.336,94.5493333 C96.1706667,97.4933333 98.4746667,99.6266667 102.613333,99.6266667 C106.112,99.6266667 108.330667,97.92 108.330667,95.5306667 C108.330667,92.6293333 106.026667,91.6053333 102.186667,89.9413333 L100.096,89.0453333 C94.0373333,86.4853333 90.0266667,83.2426667 90.0266667,76.416 C90.0266667,70.1013333 94.848,65.3226667 102.314667,65.3226667 C107.648,65.3226667 111.488,67.2 114.261333,72.0213333 L107.733333,76.2453333 C106.282667,73.6426667 104.704,72.6186667 102.314667,72.6186667 C99.8826667,72.6186667 98.304,74.1973333 98.304,76.2453333 C98.304,78.72 99.8826667,79.744 103.466667,81.3226667 L105.557333,82.2186667 C112.682667,85.2906667 116.693333,88.4053333 116.693333,95.4026667 C116.693333,102.954667 110.762667,107.093333 102.784,107.093333 C95.0186667,107.093333 89.984,103.381333 87.5093333,98.5173333 L87.5093333,98.5173333 Z M156.586667,77.952 L163.072,73.6 C156.117333,64.384 142.976,62.592 133.802667,69.5893333 C124.629333,76.5866667 122.794667,89.6853333 129.792,98.8586667 C136.789333,108.032 149.888,109.866667 159.061333,102.869333 C160.597333,101.717333 161.92,100.352 163.072,98.8586667 L156.586667,94.5493333 C152.021333,100.053333 143.829333,100.821333 138.325333,96.2133333 C132.821333,91.6053333 132.053333,83.456 136.661333,77.952 C141.226667,72.448 149.418667,71.68 154.922667,76.288 C155.52,76.8 156.074667,77.3546667 156.586667,77.952 L156.586667,77.952 Z M172.842667,98.5173333 L179.669333,94.5493333 C181.504,97.4933333 183.808,99.6266667 187.946667,99.6266667 C191.445333,99.6266667 193.664,97.92 193.664,95.5306667 C193.664,92.6293333 191.36,91.6053333 187.52,89.9413333 L185.429333,89.0453333 C179.370667,86.4853333 175.36,83.2426667 175.36,76.416 C175.36,70.1013333 180.181333,65.3226667 187.648,65.3226667 C192.981333,65.3226667 196.821333,67.2 199.594667,72.0213333 L193.066667,76.2453333 C191.616,73.6426667 190.037333,72.6186667 187.648,72.6186667 C185.216,72.6186667 183.637333,74.1973333 183.637333,76.2453333 C183.637333,78.72 185.216,79.744 188.8,81.3226667 L190.890667,82.2186667 C198.016,85.2906667 202.026667,88.4053333 202.026667,95.4026667 C202.026667,102.954667 196.096,107.093333 188.117333,107.093333 C180.352,107.093333 175.317333,103.381333 172.842667,98.5173333 L172.842667,98.5173333 Z M54.6133333,142.506667 L76.8,142.506667 L76.8,149.76 L54.6133333,149.76 L54.6133333,142.506667 Z M92.5866667,142.506667 L114.773333,142.506667 L114.773333,149.76 L92.5866667,149.76 L92.5866667,142.506667 Z M128,142.506667 L146.346667,124.16 L164.693333,142.506667 L153.6,142.506667 L146.346667,135.253333 L139.093333,142.506667 L128,142.506667 Z" fill="#323330"></path>
	</g>
</svg>
